icon-themes/sifr_svg/cmd/sc_alignleft.svg

<svg viewBox="0 0 16 16" xmlns="http://www.w3.org/2000/svg"><path d="m2 3v2h8v-2zm0 4v2h12v-2zm0 4v2h4v-2z" fill="#555753"/></svg>

<svg xmlns="http://www.w3.org/2000/svg" viewBox="0 0 16 16">
  <path
     style="fill:#555753"
     d="M 2 3 L 2 5 L 10 5 L 10 3 L 2 3 z M 2 7 L 2 9 L 14 9 L 14 7 L 2 7 z M 2 11 L 2 13 L 6 13 L 6 11 L 2 11 z "
     />
</svg>
